X: 26972
T: Miss Crofton
R: barndance
M: 4/4
K: Gmajor
AB ed A2 B/A/G/E/|GABA GA G/E/D|
EA BA/B/ A2 Be|1 dB A2 A3B|2 dB A2 A4||
ee/d/ eg g2 ge/d/|ee/d/ ea a2 b/a/g/e/|
ee/d/ eg g2 ge/d/|ea a2 a2 ga|bagb a2 ag/e/|
ed e/f/g/f/ e2 ed/B/|Be e2 e2 dB/A/|GE/G/ A2 A4||

